svgs/duotone/transporter-6.svg

<svg xmlns="http://www.w3.org/2000/svg" viewBox="0 0 512 512"><!--! Font Awesome Pro 6.3.0 by @fontawesome - https://fontawesome.com License - https://fontawesome.com/license (Commercial License) Copyright 2023 Fonticons, Inc. --><defs><style>.fa-secondary{opacity:.4}</style></defs><path class="fa-primary" d="M384 448H128c-17.62 0-32 14.38-32 32v32h320v-32C416 462.4 401.6 448 384 448z"/><path class="fa-secondary" d="M509.8 396.4L480 384l-12.38-29.75C466.9 352.9 465.5 352 464 352s-2.875 .875-3.625 2.25L448 384l-29.75 12.38C416.9 397.1 416 398.5 416 400s.875 2.875 2.25 3.625L448 416l12.38 29.75C461.1 447.1 462.5 448 464 448s2.875-.875 3.625-2.25L480 416l29.75-12.38C511.1 402.9 512 401.5 512 400S511.1 397.1 509.8 396.4zM93.75 44.38L64 32L51.63 2.25C50.88 .875 49.5 0 48 0S45.13 .875 44.38 2.25L32 32L2.25 44.38C.875 45.13 0 46.5 0 48s.875 2.875 2.25 3.625L32 64l12.38 29.75C45.13 95.13 46.5 96 48 96s2.875-.875 3.625-2.25L64 64l29.75-12.38C95.13 50.88 96 49.5 96 48S95.13 45.13 93.75 44.38zM224 32h64c8.844 0 16-7.156 16-16S296.8 0 288 0H224C215.2 0 208 7.156 208 16S215.2 32 224 32zM400 256h-288C103.2 256 96 263.2 96 272S103.2 288 112 288h288C408.8 288 416 280.8 416 272S408.8 256 400 256z"/></svg>

<svg xmlns="http://www.w3.org/2000/svg" viewBox="0 0 512 512"><!-- Font Awesome Pro 6.0.0-alpha2 by @fontawesome - https://fontawesome.com License - https://fontawesome.com/license (Commercial License) --><defs><style>.fa-secondary{opacity:.4}</style></defs><path d="M509.75 396.375L480 384L467.625 354.25C466.875 352.875 465.5 352 464 352S461.125 352.875 460.375 354.25L448 384L418.25 396.375C416.875 397.125 416 398.5 416 400S416.875 402.875 418.25 403.625L448 416L460.375 445.75C461.125 447.125 462.5 448 464 448S466.875 447.125 467.625 445.75L480 416L509.75 403.625C511.125 402.875 512 401.5 512 400S511.125 397.125 509.75 396.375ZM93.75 44.375L64 32L51.625 2.25C50.875 0.875 49.5 0 48 0S45.125 0.875 44.375 2.25L32 32L2.25 44.375C0.875 45.125 0 46.5 0 48S0.875 50.875 2.25 51.625L32 64L44.375 93.75C45.125 95.125 46.5 96 48 96S50.875 95.125 51.625 93.75L64 64L93.75 51.625C95.125 50.875 96 49.5 96 48S95.125 45.125 93.75 44.375ZM224 32H288C296.844 32 304 24.844 304 16S296.844 0 288 0H224C215.156 0 208 7.156 208 16S215.156 32 224 32ZM400 256H112C103.156 256 96 263.156 96 272S103.156 288 112 288H400C408.844 288 416 280.844 416 272S408.844 256 400 256Z" class="fa-secondary"/><path d="M384 448H128C110.375 448 96 462.375 96 480V512H416V480C416 462.375 401.625 448 384 448Z" class="fa-primary"/></svg>
